X: 1134
T: Packie Byrne's
M: 3/4
L: 1/8
R: mazurka
K: Gmaj
|: D>G | B2
|: DG |
B2 B2 dB | c2 A2 DF | A2 A2 cA | B2 G2 DG  |
B2 B2 dB | c2 A2 DF | A2 A2 cF | G2 G2 :|
|: Bd |
g2 g2 ag | f2 A2 AB | c2 c2 ed | B2 G2 Bd |
g2 g2 ag | f2 A2 AB | c2 c2 ed | G4 :|
